vendor/shopware/storefront/Resources/app/storefront/dist/assets/icon/solid/checkmark-square.svg

<svg xmlns="http://www.w3.org/2000/svg" width="16" height="16" viewBox="0 0 16 16">
  <path fill="#758CA3" fill-rule="evenodd" d="M2,0 L14,0 C15.1045695,0 16,0.8954305 16,2 L16,14 C16,15.1045695 15.1045695,16 14,16 L2,16 C0.8954305,16 0,15.1045695 0,14 L0,2 C0,0.8954305 0.8954305,0 2,0 Z M2,2 L2,14 L14,14 L14,2 L2,2 Z M5.70710678,7.29289322 L7,8.58578644 L10.2928932,5.29289322 C10.6834175,4.90236893 11.3165825,4.90236893 11.7071068,5.29289322 C12.0976311,5.68341751 12.0976311,6.31658249 11.7071068,6.70710678 L7.70710678,10.7071068 C7.31658249,11.0976311 6.68341751,11.0976311 6.29289322,10.7071068 L4.29289322,8.70710678 C3.90236893,8.31658249 3.90236893,7.68341751 4.29289322,7.29289322 C4.68341751,6.90236893 5.31658249,6.90236893 5.70710678,7.29289322 Z"/>
</svg>

<svg xmlns="http://www.w3.org/2000/svg" width="16" height="16" viewBox="0 0 16 16"><path fill="#758CA3" fill-rule="evenodd" d="M2 0h12c1.1046 0 2 .8954 2 2v12c0 1.1046-.8954 2-2 2H2c-1.1046 0-2-.8954-2-2V2C0 .8954.8954 0 2 0zm0 2v12h12V2H2zm3.7071 5.2929L7 8.5858l3.2929-3.293c.3905-.3904 1.0237-.3904 1.4142 0 .3905.3906.3905 1.0238 0 1.4143l-4 4c-.3905.3905-1.0237.3905-1.4142 0l-2-2c-.3905-.3905-.3905-1.0237 0-1.4142.3905-.3905 1.0237-.3905 1.4142 0z"/></svg>
